-----BEGIN PGP PUBLIC KEY BLOCK-----

mQINBGhZbp8BEADY0yst0kyYdt6+q2kphXPVfwFMK/oz2G3C2N4PHkhWIPj0n0Qn
njNDi7hTad0oZZjbsIHHD4b74Cg9fuCE0DLMFd04/mr/cJEmw6/vMu9NK5GJZcKp
aiQTZlmsyGuX0YZ5kQwwJ6YLinI8pCDCjAUa8moeZR4HRl3eK69B8sG01uOCPg5E
xRfPM+0Vf6x6EoS3k23rjl6yCA2gcXxYJ4fSlRtohpEKOcHOW190PfxRryOf+Rjp
yIEXcexEVm5+4E05+nHTTMz0GEDCjZNmFOeh8YXJfSqKs4mX1czJDuKWrnSvpkLz
+uXdMVA8cTJ2G0ovxdzeDyyEtLG30UwGZ7vprK0ccc52IEF52w+0JowE9/MYTLeB
LU7vAATQI5PqCr4wZPZqcna6rHmcZ2eUwvHVa642E4GMQgXedGW2EqTmgc04fUqb
4b9UuIDsQt0WdGduY5IbAlBSyzdhwP6As1njHNSq4Z4FoHingQKXFvlXr6VssKZ5
/sfdD+l9m3JJWAg7PVMkRfqF989O+JV4m8oEVl4VWU5IXmfHt6CjcznsgBU8hm1h
g8xFAaOqA8GE+KvI5jPym3CS0DY/NbPWmvEE1oIrCXJCAzPkK+yKiGRd4maT9qko
kcX8fQ63quaW8JAz/ltWTQiy35f3iAdHSF92dwzNEps1cSesxqY9gc1wOwARAQAB
tEVLaXR3YXJlIEFwdCBBcmNoaXZlIEF1dG9tYXRpYyBTaWduaW5nIEtleSAoMjAy
NikgPGRlYmlhbkBraXR3YXJlLmNvbT6JAlQEEwEKAD4WIQRNvr4+7JbnuMbsW+me
kv3Gxbm6dQUCaFlunwIbAwUJBaOagAULCQgHAgYVCgkICwIEFgIDAQIeAQIXgAAK
CRCekv3Gxbm6dbBQD/93SVoQtGaa8alMfzvV7R1stfLKVSzSN79OrB9thN+1DTVI
SKMqKE3k4CfOHd7sesaCTtwwPGIwMG1LU9cOL61dF4xE2CP//7zqZ1EKujeyk0ru
LP1qjY15J1EgSmDvbAxCWCwEkHs1R3X8lYn8aGi1mSROr3aSRavhHyGqtA5fZl2K
KgOfNWWQwgg2DeLHYXs2kJaahjhSVoONXLJGXAHC/SUrvGL9a0TK4pZoQ6+f8gMM
Uq7PKpj+P1i6N0anJEdt6SGY5BKwXUPeO3BrfLFPDs4yNW5Z5ER853UugbD5ACO/
dCehH/yQb9Gmd2KqVdJnwjz6sv4t+IVL3tqjKfdBJUXx37uIfPE7GCxkfG7lY3ZC
7Kn2QMQSwyP7zVRoLWKxreeDDhe9VR8OLe9ol58BMLCRyoU9OqJ3gd4QO7XxQPao
5yeWC6hfElROwuE9kPfPM9zsZW9gDEd+8PKINYiy1qK1HPoPghCqTQ2YNcf27x35
1W3YAg+h9DQqezbv3YTM6M6HL4pP6/r5s7qLkrJC7+8jVBt3VBGcgePjajraX4wJ
5ZaUer9lv9lgF3U8OfmlWhB6bu6shC4CJX/fYF3vhmYC+lC/SXgifRGP4fh4zSwN
o8hT37MYjMbsrIqHjmpfJZiobKxxWobnVh1pHCcsUoKUAPPF3XJeGCtrVE1mUbkC
DQRoWW7oARAAqQF/zZSQPJuEF6XPpc0qC8DCCq1i2Oa5LV9rs3SZh1/HWDeU+/u5
CkJqEGvVjaXh4WrW865z7agY9b1V3hinVNe79CJCaIXPMLUutMgJIXozPAV7ZZ/J
ZI/TLwyCtTVjGftEsVC9KKJJe8pP84AjE1kueMuW6Aqti9+3g8j3ZcDjbhEyhsLV
05oWECtkc7RqrXUbSsEW7+WeCplg8bZvnn+PPaccKleXABp5BYiw0jxLWQYWRuHq
4aOKctJZ/tgzBU2ItDQ9U00m8yredarMisXc9jdioACwB47uf2RRbDOUoYSIP6Zs
4e0U8dtrUQBQ2VOfXIgxu6p4579SI+WJq+yBRkMmTjIE2KnLylaRSph84bzhdQyZ
2Bq8vsrVOyGPVl1ha6JuYFbiAjyOyZ2eX85z0KFmV8qaE6tcAzi2/sWJIr7G8jT0
fMrnND+/WhAHCGlJ+auI36M9w4N18oDjnwy+86qY+i5DyQ81r3YRWxdCF/YN7lQl
Q6sUrYvc+PJJw4h5Ktlf1MSFwVehC4K2jf2ci/MLsh7tuk0iplGHj6lVMpbEynea
zSTaBRPdpm62DyAZo5kS/ReTpgy8DupNULsSnFTQRoOcgXQXNeb/T2lnignGTGgQ
LEji+fft++/1RrU15rx/8ygYe49/ZviFkaijP2gZyNc6do4FKmpx42UAEQEAAYkE
cgQYAQoAJhYhBE2+vj7slue4xuxb6Z6S/cbFubp1BQJoWW7oAhsCBQkFo5qAAkAJ
EJ6S/cbFubp1wXQgBBkBCgAdFiEEjbVPjHEOstTvTxv6Za3s16cDk5IFAmhZbugA
CgkQZa3s16cDk5IgIxAAkF4yVUSLzneiQVTBuOLFXiUkivDnz6c7GgJNzqEUB9q4
2mPQXNMHQ5UuhCFa/F6SCwC2FUJHBoS/OGClWKzk5qNTdmQD0/b3RzpyV249nCAq
c+DN0368PHKnmGglFj6mGII/Et17d9RcE24pSDgR1WcxuQ8Wt5GroUUoMrXzZoQL
H2iuOlzXOZFvyUfCfyEEUEoXA7l4U8YK8YCX2a7Ywl+OaOuhBSl1qTyTMopmNOCz
ZRimHVGMnkvj3j1MxFyljd483BFhjfrflxhgHkWuCso1VLj1OW2WHWAqWUKL/f/8
4CqaGAG2VnA1gvL6rzgHushIVeDPO6jAYHxhCp7Kn/0vaAZ0LctswnVEAvFkbsrY
x+WqPOLkkZ4j0PIhWKSH5H2a7JIZM2Jq3zeXpcRttaoOc4RejbRu/IHhi9NKW+tv
g//8Gk3XdjXP4ELkxtiAcJw+mB5CkeJngy449pzTWzaGSSnB1rq+XqbyUOh3HZsR
Re7ucV0TBm1NTbBZKa+wUOU0V12f7Y82cOeVAiy1RzGxarsRxXjGP5tu+mQffUmS
ahbH70AebPgOvH9K0pF3tn0EyimHoJ0Mak4yiCRK3HdVS9HVlz8O6i/dPJmjhjvO
lN5PiXgFpVQZ3Ky3OmVZA9ssnXr9c+z3nDM4skoLJi9P8AMRP5Eg/JuEezxDJNIJ
fhAAwf8hytBc7itFTWq+zuhwfWBLyPw7CuVeAuIfnu5S0DXbKF6D9RtvZ4aFwhqB
/Wvl1OssXGPf4/J/w6b1Qlsr0NhECxFWDq5LNAASpaNwATK25XH19UyvSd6rRaz2
r4sbuB+tinTIQF+ERayhLVy0fyDCDZHhnXypy6QAA765HLpsZOm1knhXv/Ce2bF7
m1cm6JsHZYiJ2DA+puXfu7P+AjmFJWMHXCEu8H6QRIssN3szuCFI2lXSagBe3JnI
WAUKsjiuskzSC3OBKfEtWOcJuQT5zjsgvA4erHAc4zb08nl0LgyAmvzCQqWvppQe
E8PMqk8xnNgcGBycrd0UN30aVS9RIYWAvkdq0KO2mheJjv0mvMGlyQPVNXAKFQT3
Uj6ThNuoo1x+T1NPEd+umLmfZa26bsjfHija9Xm4ZtMULgs5fyKyCKOXi3ixrgRs
rjnmAwg1oQuliHlurtENs/WPy182uHzsqzM1cOvh5watl+w+UdxDTVvsiL1vU4x8
oHjK5SFUoStqrHUN1ysJlWQMkA8PzVHYSOKzb+BTfkhE408hU+7F3Yuva5cR+adn
gZG972eb0NknJwfLwf03k467h951EMfJ+kF72OQfqLg2H+pKDOmp56C9M5TxR/IU
y32du4vP1LLfKFQEQlKL8MQ4JumaAdNDpKyUS2J4E1s4KLg=
=CRFv
-----END PGP PUBLIC KEY BLOCK-----
